assets/imgs/img/keyVisual_5.svg

<svg width="288" height="100" viewBox="0 0 288 100" fill="none" xmlns="http://www.w3.org/2000/svg">
<path d="M188.532 54.6366V49.6696V44.7027V39.7357V34.7688H183.584V29.8018V24.8349H178.636V19.8679V14.901H173.688H168.74V9.934H163.792H158.844V4.96704H153.896H148.948H144.001H139.053H134.105H129.157V9.934H124.209H119.261V14.901H114.313H109.365V19.8679V24.8349H104.417V29.8018V34.7688H99.4692V39.7357V44.7027V49.6696V54.6366V59.6036V64.5705H104.417V69.5375V74.5044H109.365V79.4714V84.4383H114.313H119.261V89.4053H124.209H129.157V94.3722H134.105H139.053H144.001H148.948H153.896H158.844V89.4053H163.792H168.74V84.4383H173.688H178.636V79.4714V74.5044H183.584V69.5375V64.5705H188.532V59.6036V54.6366Z" fill="#FFFF00"/>
<path d="M148.95 0.000244141H144.002V4.9672H148.95V0.000244141Z" fill="black"/>
<path d="M153.898 0.000244141H148.95V4.9672H153.898V0.000244141Z" fill="black"/>
<path d="M158.846 0.000244141H153.898V4.9672H158.846V0.000244141Z" fill="black"/>
<path d="M163.794 4.96704H158.846V9.934H163.794V4.96704Z" fill="black"/>
<path d="M168.742 4.96704H163.794V9.934H168.742V4.96704Z" fill="black"/>
<path d="M173.69 9.93408H168.742V14.901H173.69V9.93408Z" fill="black"/>
<path d="M178.637 9.93408H173.689V14.901H178.637V9.93408Z" fill="black"/>
<path d="M183.586 14.9011H178.638V19.8681H183.586V14.9011Z" fill="black"/>
<path d="M183.586 19.8682H178.638V24.8351H183.586V19.8682Z" fill="black"/>
<path d="M188.533 24.835H183.585V29.8019H188.533V24.835Z" fill="black"/>
<path d="M188.533 29.802H183.585V34.769H188.533V29.802Z" fill="black"/>
<path d="M193.481 34.7688H188.533V39.7358H193.481V34.7688Z" fill="black"/>
<path d="M193.481 39.7361H188.533V44.703H193.481V39.7361Z" fill="black"/>
<path d="M193.481 44.7029H188.533V49.6698H193.481V44.7029Z" fill="black"/>
<path d="M139.054 4.96704L144.002 4.96704V8.53539e-05L139.054 8.53539e-05V4.96704Z" fill="black"/>
<path d="M134.105 4.96704L139.053 4.96704V8.53539e-05L134.105 8.53539e-05V4.96704Z" fill="black"/>
<path d="M129.158 4.96704L134.106 4.96704V8.53539e-05L129.158 8.53539e-05V4.96704Z" fill="black"/>
<path d="M124.21 9.93408H129.158V4.96713L124.21 4.96713V9.93408Z" fill="black"/>
<path d="M119.262 9.93408H124.21V4.96713L119.262 4.96713V9.93408Z" fill="black"/>
<path d="M114.314 14.9011H119.262V9.93417H114.314V14.9011Z" fill="black"/>
<path d="M109.366 14.9011H114.313V9.93417H109.366V14.9011Z" fill="black"/>
<path d="M104.418 19.8679H109.366V14.901H104.418V19.8679Z" fill="black"/>
<path d="M104.418 24.835H109.366V19.868H104.418V24.835Z" fill="black"/>
<path d="M99.4705 29.8018H104.418V24.8348H99.4705V29.8018Z" fill="black"/>
<path d="M99.4705 34.7688H104.418V29.8018H99.4705V34.7688Z" fill="black"/>
<path d="M94.5223 39.7358H99.4702V34.7689H94.5223V39.7358Z" fill="black"/>
<path d="M94.5223 44.7029H99.4702V39.7359H94.5223V44.7029Z" fill="black"/>
<path d="M94.5223 49.6697H99.4702V44.7027H94.5223V49.6697Z" fill="black"/>
<path d="M148.95 94.3726H144.002V99.3395H148.95V94.3726Z" fill="black"/>
<path d="M153.898 94.3726H148.95V99.3395H153.898V94.3726Z" fill="black"/>
<path d="M158.846 94.3726H153.898V99.3395H158.846V94.3726Z" fill="black"/>
<path d="M163.794 89.4055H158.846V94.3725H163.794V89.4055Z" fill="black"/>
<path d="M168.742 89.4055H163.794V94.3725H168.742V89.4055Z" fill="black"/>
<path d="M173.69 84.4385H168.742V89.4054H173.69V84.4385Z" fill="black"/>
<path d="M178.637 84.4385H173.689V89.4054H178.637V84.4385Z" fill="black"/>
<path d="M183.586 79.4714H178.638V84.4384H183.586V79.4714Z" fill="black"/>
<path d="M183.586 74.5046H178.638V79.4716H183.586V74.5046Z" fill="black"/>
<path d="M188.533 69.5376H183.585V74.5046H188.533V69.5376Z" fill="black"/>
<path d="M188.533 64.5708H183.585V69.5378H188.533V64.5708Z" fill="black"/>
<path d="M193.481 59.6035H188.533V64.5705H193.481V59.6035Z" fill="black"/>
<path d="M193.481 54.6367H188.533V59.6037H193.481V54.6367Z" fill="black"/>
<path d="M193.481 49.6699H188.533V54.6369H193.481V49.6699Z" fill="black"/>
<path d="M139.054 99.3394H144.002V94.3724H139.054V99.3394Z" fill="black"/>
<path d="M134.105 99.3394H139.053V94.3724H134.105V99.3394Z" fill="black"/>
<path d="M129.158 99.3394H134.106V94.3724H129.158V99.3394Z" fill="black"/>
<path d="M124.21 94.3723H129.158V89.4054H124.21V94.3723Z" fill="black"/>
<path d="M119.262 94.3723H124.21V89.4054H119.262V94.3723Z" fill="black"/>
<path d="M114.314 89.4055H119.262V84.4386H114.314V89.4055Z" fill="black"/>
<path d="M109.366 89.4055H114.313V84.4386H109.366V89.4055Z" fill="black"/>
<path d="M104.418 84.4385H109.366V79.4715H104.418V84.4385Z" fill="black"/>
<path d="M104.418 79.4714H109.366V74.5045H104.418V79.4714Z" fill="black"/>
<path d="M99.4705 74.5044H104.418V69.5374H99.4705V74.5044Z" fill="black"/>
<path d="M99.4705 69.5376H104.418V64.5706H99.4705V69.5376Z" fill="black"/>
<path d="M94.5223 64.5708H99.4702V59.6038H94.5223V64.5708Z" fill="black"/>
<path d="M94.5223 59.6035H99.4702V54.6366H94.5223V59.6035Z" fill="black"/>
<path d="M94.5223 54.6367H99.4702V49.6698H94.5223V54.6367Z" fill="black"/>
<path d="M153.896 39.7361H148.948V44.703H153.896V39.7361Z" fill="black"/>
<path d="M139.052 39.7361H134.104V44.703H139.052V39.7361Z" fill="black"/>
<path d="M139.052 54.637H134.104V59.6039H139.052V54.637Z" fill="black"/>
<path d="M144 59.6038H139.052V64.5707H144V59.6038Z" fill="black"/>
<path d="M148.949 59.6038H144.001V64.5707H148.949V59.6038Z" fill="black"/>
<path d="M153.896 54.637H148.948V59.6039H153.896V54.637Z" fill="black"/>
<path d="M283.051 54.6371V49.6701V44.7032V39.7362V34.7693H278.103V29.8023V24.8354H273.155V19.8684V14.9014H268.207H263.259V9.93448H258.311H253.363V4.96753H248.415H243.468H238.52H233.572H228.624H223.676V9.93448H218.728H213.78V14.9014H208.832H203.884V19.8684V24.8354H198.936V29.8023V34.7693H193.988V39.7362V44.7032V49.6701V54.6371V59.604V64.571H198.936V69.538V74.5049H203.884V79.4719V84.4388H208.832H213.78V89.4058H218.728H223.676V94.3727H228.624H233.572H238.52H243.468H248.415H253.363V89.4058H258.311H263.259V84.4388H268.207H273.155V79.4719V74.5049H278.103V69.538V64.571H283.051V59.604V54.6371Z" fill="#FFFF00"/>
<path d="M243.467 0.000244141H238.519V4.9672H243.467V0.000244141Z" fill="black"/>
<path d="M248.415 0.000244141H243.467V4.9672H248.415V0.000244141Z" fill="black"/>
<path d="M253.363 0.000244141H248.416V4.9672H253.363V0.000244141Z" fill="black"/>
<path d="M258.311 4.96753H253.363V9.93448H258.311V4.96753Z" fill="black"/>
<path d="M263.259 4.96753H258.312V9.93448H263.259V4.96753Z" fill="black"/>
<path d="M268.207 9.93481H263.259V14.9018H268.207V9.93481Z" fill="black"/>
<path d="M273.154 9.93481H268.207V14.9018H273.154V9.93481Z" fill="black"/>
<path d="M278.103 14.9011H273.155V19.8681H278.103V14.9011Z" fill="black"/>
<path d="M278.103 19.8684H273.155V24.8354H278.103V19.8684Z" fill="black"/>
<path d="M283.05 24.835H278.103V29.8019H283.05V24.835Z" fill="black"/>
<path d="M283.05 29.8025H278.103V34.7694H283.05V29.8025Z" fill="black"/>
<path d="M287.999 34.7695H283.051V39.7365H287.999V34.7695Z" fill="black"/>
<path d="M287.999 39.7361H283.051V44.703H287.999V39.7361Z" fill="black"/>
<path d="M287.999 44.7031H283.051V49.6701H287.999V44.7031Z" fill="black"/>
<path d="M233.572 4.96753L238.52 4.96753V0.000573635L233.572 0.000573635V4.96753Z" fill="black"/>
<path d="M228.624 4.96753L233.572 4.96753V0.000573635L228.624 0.000573635V4.96753Z" fill="black"/>
<path d="M223.676 4.96753L228.624 4.96753V0.000573635L223.676 0.000573635V4.96753Z" fill="black"/>
<path d="M218.728 9.93481H223.676V4.96786L218.728 4.96786V9.93481Z" fill="black"/>
<path d="M213.779 9.93481H218.727V4.96786L213.779 4.96786V9.93481Z" fill="black"/>
<path d="M208.832 14.9011H213.78V9.93417H208.832V14.9011Z" fill="black"/>
<path d="M203.884 14.9011H208.832V9.93417H203.884V14.9011Z" fill="black"/>
<path d="M198.937 19.8682H203.885V14.9012H198.937V19.8682Z" fill="black"/>
<path d="M198.936 24.835H203.884V19.868H198.936V24.835Z" fill="black"/>
<path d="M193.988 29.8022H198.936V24.8353H193.988V29.8022Z" fill="black"/>
<path d="M193.988 34.7695H198.936V29.8026H193.988V34.7695Z" fill="black"/>
<path d="M189.039 39.7358H193.987V34.7689H189.039V39.7358Z" fill="black"/>
<path d="M189.039 44.7031H193.987V39.7362H189.039V44.7031Z" fill="#FFFF00"/>
<path d="M189.04 49.6697H193.988V44.7027H189.04V49.6697Z" fill="#FFFF00"/>
<path d="M243.467 94.3728H238.519V99.3398H243.467V94.3728Z" fill="black"/>
<path d="M248.415 94.3728H243.467V99.3398H248.415V94.3728Z" fill="black"/>
<path d="M253.363 94.3728H248.416V99.3398H253.363V94.3728Z" fill="black"/>
<path d="M258.311 89.4055H253.363V94.3725H258.311V89.4055Z" fill="black"/>
<path d="M263.259 89.4055H258.312V94.3725H263.259V89.4055Z" fill="black"/>
<path d="M268.207 84.4392H263.259V89.4062H268.207V84.4392Z" fill="black"/>
<path d="M273.154 84.4392H268.207V89.4062H273.154V84.4392Z" fill="black"/>
<path d="M278.103 79.4719H273.155V84.4389H278.103V79.4719Z" fill="black"/>
<path d="M278.103 74.5046H273.155V79.4716H278.103V74.5046Z" fill="black"/>
<path d="M283.05 69.5378H278.103V74.5048H283.05V69.5378Z" fill="black"/>
<path d="M283.05 64.5708H278.103V69.5378H283.05V64.5708Z" fill="black"/>
<path d="M287.999 59.6042H283.051V64.5712H287.999V59.6042Z" fill="black"/>
<path d="M287.999 54.6372H283.051V59.6042H287.999V54.6372Z" fill="black"/>
<path d="M287.998 49.6699H283.05V54.6369H287.998V49.6699Z" fill="black"/>
<path d="M233.572 99.3394H238.52V94.3724H233.572V99.3394Z" fill="black"/>
<path d="M228.624 99.3394H233.572V94.3724H228.624V99.3394Z" fill="black"/>
<path d="M223.677 99.3394H228.625V94.3724H223.677V99.3394Z" fill="black"/>
<path d="M218.728 94.3726H223.676V89.4056H218.728V94.3726Z" fill="black"/>
<path d="M213.779 94.3726H218.727V89.4056H213.779V94.3726Z" fill="black"/>
<path d="M208.832 89.4055H213.78V84.4386H208.832V89.4055Z" fill="black"/>
<path d="M203.884 89.4055H208.832V84.4386H203.884V89.4055Z" fill="black"/>
<path d="M198.937 84.439H203.885V79.472H198.937V84.439Z" fill="black"/>
<path d="M198.937 79.4719H203.885V74.505H198.937V79.4719Z" fill="black"/>
<path d="M193.988 74.5044H198.936V69.5374H193.988V74.5044Z" fill="black"/>
<path d="M193.988 69.5378H198.936V64.5709H193.988V69.5378Z" fill="black"/>
<path d="M189.039 64.5708H193.987V59.6038H189.039V64.5708Z" fill="black"/>
<path d="M189.039 59.6042H193.987V54.6373H189.039V59.6042Z" fill="#FFFF00"/>
<path d="M189.039 54.6372H193.987V49.6703H189.039V54.6372Z" fill="#FFFF00"/>
<path d="M248.416 39.7361H243.468V44.703H248.416V39.7361Z" fill="black"/>
<path d="M233.572 39.7361H228.624V44.703H233.572V39.7361Z" fill="black"/>
<path d="M233.572 54.637H228.624V59.6039H233.572V54.637Z" fill="black"/>
<path d="M238.52 59.604H233.572V64.571H238.52V59.604Z" fill="black"/>
<path d="M243.468 59.604H238.52V64.571H243.468V59.604Z" fill="black"/>
<path d="M248.416 54.637H243.468V59.6039H248.416V54.637Z" fill="black"/>
<path d="M94.0109 54.6366V49.6696V44.7027V39.7357V34.7688H89.0629V29.8018V24.8349H84.115V19.8679V14.901H79.1671H74.2192V9.934H69.2712H64.3233V4.96704H59.3754H54.4275H49.4796H44.5316H39.5837H34.6358V9.934H29.6879H24.7399V14.901H19.792H14.8441V19.8679V24.8349H9.89617V29.8018V34.7688H4.94824V39.7357V44.7027V49.6696V54.6366V59.6036V64.5705H9.89617V69.5375V74.5044H14.8441V79.4714V84.4383H19.792H24.7399V89.4053H29.6879H34.6358V94.3722H39.5837H44.5316H49.4796H54.4275H59.3754H64.3233V89.4053H69.2712H74.2192V84.4383H79.1671H84.115V79.4714V74.5044H89.0629V69.5375V64.5705H94.0109V59.6036V54.6366Z" fill="#FFFF00"/>
<path d="M54.4279 0.000244141H49.48V4.9672H54.4279V0.000244141Z" fill="black"/>
<path d="M59.3752 0.000244141H54.4272V4.9672H59.3752V0.000244141Z" fill="black"/>
<path d="M64.3239 0.000244141H59.376V4.9672H64.3239V0.000244141Z" fill="black"/>
<path d="M69.2717 4.96704H64.3237V9.934H69.2717V4.96704Z" fill="black"/>
<path d="M74.2199 4.96704H69.272V9.934H74.2199V4.96704Z" fill="black"/>
<path d="M79.1676 9.93408H74.2197V14.901H79.1676V9.93408Z" fill="black"/>
<path d="M84.1149 9.93408H79.167V14.901H84.1149V9.93408Z" fill="black"/>
<path d="M89.0636 14.9011H84.1157V19.8681H89.0636V14.9011Z" fill="black"/>
<path d="M89.0636 19.8682H84.1157V24.8351H89.0636V19.8682Z" fill="black"/>
<path d="M94.0114 24.835H89.0635V29.8019H94.0114V24.835Z" fill="black"/>
<path d="M94.0114 29.802H89.0635V34.769H94.0114V29.802Z" fill="black"/>
<path d="M98.9587 34.7688H94.0107V39.7358H98.9587V34.7688Z" fill="black"/>
<path d="M98.9587 39.7361H94.0107V44.703H98.9587V39.7361Z" fill="#FFFF00"/>
<path d="M98.9587 44.7029H94.0107V49.6698H98.9587V44.7029Z" fill="#FFFF00"/>
<path d="M44.5321 4.96729L49.48 4.96729V0.000329494L44.5321 0.000329494V4.96729Z" fill="black"/>
<path d="M39.5833 4.96729L44.5312 4.96729V0.000329494L39.5833 0.000329494V4.96729Z" fill="black"/>
<path d="M34.6356 4.96729L39.5835 4.96729V0.000329494L34.6356 0.000329494V4.96729Z" fill="black"/>
<path d="M29.6883 9.93408H34.6362V4.96713L29.6883 4.96713V9.93408Z" fill="black"/>
<path d="M24.7396 9.93408H29.6875V4.96713L24.7396 4.96713V9.93408Z" fill="black"/>
<path d="M19.7923 14.9014H24.7402V9.93441H19.7923V14.9014Z" fill="black"/>
<path d="M14.8446 14.9014H19.7925V9.93441H14.8446V14.9014Z" fill="black"/>
<path d="M9.8968 19.8682H14.8447V14.9012H9.8968V19.8682Z" fill="black"/>
<path d="M9.8968 24.8352H14.8447V19.8682H9.8968V24.8352Z" fill="black"/>
<path d="M4.94856 29.802H9.89648V24.835H4.94856L4.94856 29.802Z" fill="black"/>
<path d="M4.94856 34.769H9.89648V29.8021H4.94856L4.94856 34.769Z" fill="black"/>
<path d="M-0.000169277 39.7361H4.94775L4.94775 34.7691H-0.000169277L-0.000169277 39.7361Z" fill="black"/>
<path d="M-0.000169277 44.7029H4.94775L4.94775 39.7359H-0.000169277L-0.000169277 44.7029Z" fill="black"/>
<path d="M-0.000169277 49.6699H4.94775L4.94775 44.703H-0.000169277L-0.000169277 49.6699Z" fill="black"/>
<path d="M54.4279 94.3726H49.48V99.3395H54.4279V94.3726Z" fill="black"/>
<path d="M59.3752 94.3726H54.4272V99.3395H59.3752V94.3726Z" fill="black"/>
<path d="M64.3239 94.3726H59.376V99.3395H64.3239V94.3726Z" fill="black"/>
<path d="M69.2717 89.4055H64.3237V94.3725H69.2717V89.4055Z" fill="black"/>
<path d="M74.2199 89.4055H69.272V94.3725H74.2199V89.4055Z" fill="black"/>
<path d="M79.1676 84.4385H74.2197V89.4054H79.1676V84.4385Z" fill="black"/>
<path d="M84.1149 84.4385H79.167V89.4054H84.1149V84.4385Z" fill="black"/>
<path d="M89.0636 79.4714H84.1157V84.4384H89.0636V79.4714Z" fill="black"/>
<path d="M89.0636 74.5046H84.1157V79.4716H89.0636V74.5046Z" fill="black"/>
<path d="M94.0114 69.5376H89.0635V74.5046H94.0114V69.5376Z" fill="black"/>
<path d="M94.0114 64.5708H89.0635V69.5378H94.0114V64.5708Z" fill="black"/>
<path d="M98.9587 59.6035H94.0107V64.5705H98.9587V59.6035Z" fill="black"/>
<path d="M98.9587 54.6367H94.0107V59.6037H98.9587V54.6367Z" fill="#FFFF00"/>
<path d="M98.9587 49.6699H94.0107V54.6369H98.9587V49.6699Z" fill="#FFFF00"/>
<path d="M44.5321 99.3391H49.48V94.3722H44.5321V99.3391Z" fill="black"/>
<path d="M39.5833 99.3391H44.5312V94.3722H39.5833V99.3391Z" fill="black"/>
<path d="M34.6356 99.3391H39.5835V94.3722H34.6356V99.3391Z" fill="black"/>
<path d="M29.6883 94.3723H34.6362V89.4054H29.6883V94.3723Z" fill="black"/>
<path d="M24.7396 94.3723H29.6875V89.4054H24.7396V94.3723Z" fill="black"/>
<path d="M19.7923 89.4053H24.7402V84.4383H19.7923V89.4053Z" fill="black"/>
<path d="M14.8446 89.4053H19.7925V84.4383H14.8446V89.4053Z" fill="black"/>
<path d="M9.8968 84.4385H14.8447V79.4715H9.8968V84.4385Z" fill="black"/>
<path d="M9.8968 79.4714H14.8447V74.5045H9.8968V79.4714Z" fill="black"/>
<path d="M4.94856 74.5044H9.89648V69.5374H4.94856L4.94856 74.5044Z" fill="black"/>
<path d="M4.94856 69.5376H9.89648V64.5706H4.94856L4.94856 69.5376Z" fill="black"/>
<path d="M-0.000169277 64.5706H4.94775L4.94775 59.6036H-0.000169277L-0.000169277 64.5706Z" fill="black"/>
<path d="M-0.000169277 59.6035H4.94775L4.94775 54.6366H-0.000169277L-0.000169277 59.6035Z" fill="black"/>
<path d="M-0.000169277 54.6365H4.94775L4.94775 49.6695H-0.000169277L-0.000169277 54.6365Z" fill="black"/>
<path d="M59.3757 39.7361H54.4277V44.703H59.3757V39.7361Z" fill="black"/>
<path d="M44.5324 39.7361H39.5845V44.703H44.5324V39.7361Z" fill="black"/>
<path d="M44.5324 54.637H39.5845V59.6039H44.5324V54.637Z" fill="black"/>
<path d="M49.4797 59.6038H44.5317V64.5707H49.4797V59.6038Z" fill="black"/>
<path d="M54.4284 59.6038H49.4805V64.5707H54.4284V59.6038Z" fill="black"/>
<path d="M59.3757 54.637H54.4277V59.6039H59.3757V54.637Z" fill="black"/>
</svg>

<svg xmlns="http://www.w3.org/2000/svg" width="288" height="100" fill="none" viewBox="0 0 288 100"><path fill="#ff0" d="M188.532 54.637V34.769h-4.948v-9.934h-4.948V14.9h-9.896V9.934h-9.896V4.967h-29.687v4.967h-9.896v4.967h-9.896v9.934h-4.948v9.934h-4.948V64.57h4.948v9.934h4.948v9.934h9.896v4.967h9.896v4.967h29.687v-4.967h9.896v-4.967h9.896v-9.934h4.948V64.57h4.948z"/><path fill="#000" d="M148.95 0h-4.948v4.967h4.948zm4.948 0h-4.948v4.967h4.948zm4.948 0h-4.948v4.967h4.948zm4.948 4.967h-4.948v4.967h4.948z"/><path fill="#000" d="M168.742 4.967h-4.948v4.967h4.948zm4.948 4.967h-4.948v4.967h4.948z"/><path fill="#000" d="M178.637 9.934h-4.948v4.967h4.948zm4.949 4.967h-4.948v4.967h4.948zm0 4.967h-4.948v4.967h4.948zm4.947 4.967h-4.948v4.967h4.948zm0 4.967h-4.948v4.967h4.948zm4.948 4.967h-4.948v4.967h4.948zm0 4.967h-4.948v4.967h4.948zm0 4.967h-4.948v4.967h4.948zM139.054 4.967h4.948V0h-4.948zm-4.949 0h4.948V0h-4.948z"/><path fill="#000" d="M129.158 4.967h4.948V0h-4.948zm-4.948 4.967h4.948V4.967h-4.948z"/><path fill="#000" d="M119.262 9.934h4.948V4.967h-4.948zm-4.948 4.967h4.948V9.934h-4.948zm-4.948 0h4.947V9.934h-4.947z"/><path fill="#000" d="M104.418 19.868h4.948V14.9h-4.948zm0 4.967h4.948v-4.967h-4.948zm-4.948 4.967h4.948v-4.967H99.47zm0 4.967h4.948v-4.967H99.47zm-4.948 4.967h4.948v-4.967h-4.948zm0 4.967h4.948v-4.967h-4.948zm0 4.967h4.948v-4.967h-4.948zm54.428 44.703h-4.948v4.966h4.948zm4.948 0h-4.948v4.966h4.948zm4.948 0h-4.948v4.966h4.948zm4.948-4.967h-4.948v4.966h4.948z"/><path fill="#000" d="M168.742 89.406h-4.948v4.966h4.948zm4.948-4.967h-4.948v4.966h4.948z"/><path fill="#000" d="M178.637 84.439h-4.948v4.966h4.948zm4.949-4.968h-4.948v4.967h4.948z"/><path fill="#000" d="M183.586 74.505h-4.948v4.967h4.948zm4.947-4.967h-4.948v4.967h4.948zm0-4.968h-4.948v4.968h4.948zm4.948-4.966h-4.948v4.966h4.948zm0-4.967h-4.948v4.967h4.948zm0-4.967h-4.948v4.967h4.948zm-54.427 49.67h4.948v-4.968h-4.948zm-4.949 0h4.948v-4.968h-4.948z"/><path fill="#000" d="M129.158 99.34h4.948v-4.968h-4.948zm-4.948-4.968h4.948v-4.967h-4.948z"/><path fill="#000" d="M119.262 94.372h4.948v-4.967h-4.948zm-4.948-4.966h4.948v-4.967h-4.948zm-4.948 0h4.947v-4.967h-4.947zm-4.948-4.967h4.948v-4.967h-4.948zm0-4.968h4.948v-4.967h-4.948zm-4.948-4.967h4.948v-4.967H99.47z"/><path fill="#000" d="M99.47 69.538h4.948V64.57H99.47zm-4.948-4.968h4.948v-4.966h-4.948z"/><path fill="#000" d="M94.522 59.604h4.948v-4.967h-4.948zm0-4.967h4.948V49.67h-4.948zm59.374-14.901h-4.948v4.967h4.948zm-14.844 0h-4.948v4.967h4.948zm0 14.901h-4.948v4.967h4.948zM144 59.604h-4.948v4.967H144zm4.949 0h-4.948v4.967h4.948zm4.947-4.967h-4.948v4.967h4.948z"/><path fill="#ff0" d="M283.051 54.637V34.77h-4.948v-9.934h-4.948v-9.934h-9.896V9.934h-9.896V4.968h-29.687v4.966h-9.896v4.967h-9.896v9.934h-4.948v9.934h-4.948v29.802h4.948v9.934h4.948v9.934h9.896v4.967h9.896v4.967h29.687v-4.967h9.896v-4.967h9.896v-9.934h4.948V64.57h4.948v-9.934"/><path fill="#000" d="M243.467 0h-4.948v4.967h4.948z"/><path fill="#000" d="M248.415 0h-4.948v4.967h4.948zm4.948 0h-4.947v4.967h4.947zm4.948 4.968h-4.948v4.966h4.948zm4.948 0h-4.947v4.966h4.947zm4.948 4.967h-4.948v4.967h4.948zm4.947 0h-4.947v4.967h4.947zm4.949 4.966h-4.948v4.967h4.948zm0 4.967h-4.948v4.967h4.948zm4.947 4.967h-4.947v4.967h4.947zm0 4.968h-4.947v4.966h4.947zm4.949 4.967h-4.948v4.966h4.948zm0 4.966h-4.948v4.967h4.948zm0 4.967h-4.948v4.967h4.948zM233.572 4.968h4.948V0h-4.948zm-4.948 0h4.948V0h-4.948zm-4.948 0h4.948V0h-4.948zm-4.948 4.967h4.948V4.968h-4.948zm-4.949 0h4.948V4.968h-4.948z"/><path fill="#000" d="M208.832 14.901h4.948V9.934h-4.948zm-4.948 0h4.948V9.934h-4.948zm-4.947 4.967h4.948v-4.967h-4.948zm-.001 4.967h4.948v-4.967h-4.948zm-4.948 4.967h4.948v-4.967h-4.948zm0 4.968h4.948v-4.967h-4.948zm-4.949 4.966h4.948v-4.967h-4.948z"/><path fill="#ff0" d="M189.039 44.703h4.948v-4.967h-4.948zm.001 4.967h4.948v-4.967h-4.948z"/><path fill="#000" d="M243.467 94.373h-4.948v4.967h4.948z"/><path fill="#000" d="M248.415 94.373h-4.948v4.967h4.948zm4.948 0h-4.947v4.967h4.947zm4.948-4.967h-4.948v4.966h4.948zm4.948 0h-4.947v4.966h4.947zm4.948-4.966h-4.948v4.966h4.948zm4.947 0h-4.947v4.966h4.947zm4.949-4.968h-4.948v4.967h4.948zm0-4.967h-4.948v4.967h4.948zm4.947-4.967h-4.947v4.967h4.947zm0-4.968h-4.947v4.968h4.947zm4.949-4.966h-4.948v4.967h4.948zm0-4.967h-4.948v4.967h4.948zm-.001-4.967h-4.948v4.967h4.948zm-54.426 49.67h4.948v-4.968h-4.948zm-4.948 0h4.948v-4.968h-4.948z"/><path fill="#000" d="M223.677 99.34h4.948v-4.968h-4.948zm-4.949-4.967h4.948v-4.967h-4.948zm-4.949 0h4.948v-4.967h-4.948zm-4.947-4.967h4.948v-4.967h-4.948zm-4.948 0h4.948v-4.967h-4.948zm-4.947-4.967h4.948v-4.967h-4.948zm0-4.967h4.948v-4.967h-4.948zm-4.949-4.968h4.948v-4.967h-4.948z"/><path fill="#000" d="M193.988 69.538h4.948V64.57h-4.948zm-4.949-4.968h4.948v-4.966h-4.948z"/><path fill="#ff0" d="M189.039 59.604h4.948v-4.967h-4.948zm0-4.967h4.948V49.67h-4.948z"/><path fill="#000" d="M248.416 39.736h-4.948v4.967h4.948zm-14.844 0h-4.948v4.967h4.948zm0 14.901h-4.948v4.967h4.948zm4.948 4.967h-4.948v4.967h4.948z"/><path fill="#000" d="M243.468 59.604h-4.948v4.967h4.948zm4.948-4.967h-4.948v4.967h4.948z"/><path fill="#ff0" d="M94.01 54.637V34.769h-4.947v-9.934h-4.948V14.9h-9.896V9.934h-9.896V4.967H34.636v4.967H24.74v4.967h-9.896v9.934H9.896v9.934H4.948V64.57h4.948v9.934h4.948v9.934h9.896v4.967h9.896v4.967h29.687v-4.967h9.896v-4.967h9.896v-9.934h4.948V64.57h4.948v-9.933"/><path fill="#000" d="M54.428 0H49.48v4.967h4.948z"/><path fill="#000" d="M59.375 0h-4.948v4.967h4.948zm4.949 0h-4.948v4.967h4.948zm4.948 4.967h-4.948v4.967h4.948zm4.948 0h-4.948v4.967h4.948zm4.948 4.967H74.22v4.967h4.948z"/><path fill="#000" d="M84.115 9.934h-4.948v4.967h4.948zm4.949 4.967h-4.948v4.967h4.948zm0 4.967h-4.948v4.967h4.948zm4.947 4.967h-4.947v4.967h4.947zm0 4.967h-4.947v4.967h4.947zm4.948 4.967H94.01v4.967h4.948z"/><path fill="#ff0" d="M98.959 39.736H94.01v4.967h4.948zm0 4.967H94.01v4.967h4.948z"/><path fill="#000" d="M44.532 4.967h4.948V0h-4.948zm-4.949 0h4.948V0h-4.948z"/><path fill="#000" d="M34.636 4.967h4.947V0h-4.947zm-4.948 4.967h4.948V4.967h-4.948zm-4.948 0h4.948V4.967H24.74zm-4.948 4.967h4.948V9.934h-4.948z"/><path fill="#000" d="M14.845 14.901h4.948V9.934h-4.948zm-4.948 4.967h4.948v-4.967H9.897zm0 4.967h4.948v-4.967H9.897zm-4.948 4.967h4.947v-4.967H4.95zm0 4.967h4.947v-4.967H4.95zM0 39.736h4.948V34.77H0zm0 4.967h4.948v-4.967H0zm0 4.967h4.948v-4.967H0zm54.428 44.703H49.48v4.966h4.948z"/><path fill="#000" d="M59.375 94.373h-4.948v4.966h4.948zm4.949 0h-4.948v4.966h4.948zm4.948-4.967h-4.948v4.966h4.948zm4.948 0h-4.948v4.966h4.948zm4.948-4.967H74.22v4.966h4.948z"/><path fill="#000" d="M84.115 84.439h-4.948v4.966h4.948zm4.949-4.968h-4.948v4.967h4.948z"/><path fill="#000" d="M89.064 74.505h-4.948v4.967h4.948zm4.947-4.967h-4.947v4.967h4.947zm0-4.968h-4.947v4.968h4.947zm4.948-4.966H94.01v4.966h4.948z"/><path fill="#ff0" d="M98.959 54.637H94.01v4.967h4.948zm0-4.967H94.01v4.967h4.948z"/><path fill="#000" d="M44.532 99.34h4.948v-4.968h-4.948zm-4.949 0h4.948v-4.968h-4.948z"/><path fill="#000" d="M34.636 99.34h4.947v-4.968h-4.947zm-4.948-4.968h4.948v-4.967h-4.948zm-4.948 0h4.948v-4.967H24.74zm-4.948-4.967h4.948v-4.967h-4.948z"/><path fill="#000" d="M14.845 89.405h4.948v-4.967h-4.948z"/><path fill="#000" d="M9.897 84.439h4.948v-4.967H9.897zm0-4.968h4.948v-4.967H9.897zm-4.948-4.967h4.947v-4.967H4.95z"/><path fill="#000" d="M4.949 69.538h4.947V64.57H4.95zM0 64.57h4.948v-4.966H0z"/><path fill="#000" d="M0 59.604h4.948v-4.967H0zm0-4.967h4.948v-4.968H0zm59.376-14.901h-4.948v4.967h4.948zm-14.844 0h-4.947v4.967h4.947zm0 14.901h-4.947v4.967h4.947zm4.948 4.967h-4.948v4.967h4.948zm4.948 0h-4.947v4.967h4.947zm4.948-4.967h-4.948v4.967h4.948z"/></svg>
